;START_OF_HEADER
;HEADER_VERSION:0.1
;FLAVOR:Griffin
;GENERATOR.NAME:Cura_SteamEngine
;GENERATOR.VERSION:5.10.0
;GENERATOR.BUILD_DATE:2025-03-21
;TARGET_MACHINE.NAME:Ultimaker S5
;EXTRUDER_TRAIN.0.INITIAL_TEMPERATURE:200
;EXTRUDER_TRAIN.0.MATERIAL.VOLUME_USED:17648
;EXTRUDER_TRAIN.0.MATERIAL.GUID:44a029e6-e31b-4c9e-a12f-9282e29a92ff
;EXTRUDER_TRAIN.0.NOZZLE.DIAMETER:0.4
;EXTRUDER_TRAIN.0.NOZZLE.NAME:AA 0.4
;BUILD_PLATE.INITIAL_TEMPERATURE:60
;BUILD_VOLUME.TEMPERATURE:28
;PRINT.TIME:3902
;PRINT.GROUPS:1
;PRINT.SIZE.MIN.X:107.85
;PRINT.SIZE.MIN.Y:92.91
;PRINT.SIZE.MIN.Z:0.2
;PRINT.SIZE.MAX.X:330
;PRINT.SIZE.MAX.Y:237
;PRINT.SIZE.MAX.Z:20.001
;SLICE_UUID:ea1b3d75-f0c2-4429-92f8-4c6f29eee5a4
;END_OF_HEADER
;Generated with Cura_SteamEngine 5.10.0
T0

M82 ;absolute extrusion mode
G92 E0
M190 S60
M104 S200
M109 S200
G280 S1
G0 Z20.001
G1 F2700 E-6.5
;LAYER_COUNT:66
G0 F9000 X330 Y237
;LAYER:0
M106 S255
M204 S1500
M205 X52.5 Y52.5
G1 F600 Z2.2
G0 F9000 X219.595 Y144.53 Z2.2
;TYPE:SKIRT
G1 F600 Z0.2
G1 F2700 E0
G1 F1800 X216.612 Y146.543 E0.04513
G1 X213.725 Y147.09 E0.08198
G1 X116.268 Y147.089 E1.30412
G1 X113.386 Y146.543 E1.34091
G1 X110.406 Y144.531 E1.386
G1 X108.397 Y141.55 E1.43108
G1 X107.85 Y138.664 E1.46791
G1 X107.851 Y101.333 E1.93606
G1 X108.395 Y98.454 E1.9728
G1 X110.406 Y95.468 E2.01795
G1 X113.395 Y93.455 E2.06314
G1 X116.283 Y92.91 E2.09999
G1 X213.725 Y92.911 E3.32195
G1 X216.603 Y93.454 E3.35868
G1 X219.592 Y95.467 E3.40387
G1 X221.605 Y98.456 E3.44906
G1 X222.15 Y101.339 E3.48586
G1 X222.149 Y138.674 E3.95405
G1 X221.604 Y141.548 E3.99074
G1 X219.595 Y144.53 E4.03583
G0 F9000 X219.306 Y144.242
G1 F1800 X216.456 Y146.165 E4.07894
G1 X213.687 Y146.69 E4.11428
G1 X116.306 Y146.689 E5.33548
G1 X113.543 Y146.165 E5.37074
G1 X110.693 Y144.242 E5.41386
G1 X108.775 Y141.395 E5.45691
G1 X108.25 Y138.626 E5.49225
G1 X108.251 Y101.37 E5.95945
G1 X108.772 Y98.611 E5.99466
G1 X110.695 Y95.757 E6.03782
G1 X113.552 Y93.832 E6.08102
G1 X116.32 Y93.31 E6.11635
G1 X213.688 Y93.311 E7.33738
G1 X216.446 Y93.831 E7.37257
G1 X219.303 Y95.756 E7.41577
G1 X221.228 Y98.613 E7.45898
G1 X221.75 Y101.376 E7.49424
G1 X221.749 Y138.637 E7.96151
G1 X221.227 Y141.391 E7.99666
G1 X219.306 Y144.242 E8.03977
G0 F9000 X219.017 Y143.954
G1 F1800 X216.299 Y145.788 E8.08089
G1 X213.65 Y146.29 E8.1147
G1 X116.343 Y146.289 E9.33496
G1 X113.7 Y145.788 E9.3687
G1 X110.982 Y143.954 E9.40982
G1 X109.152 Y141.238 E9.45089
G1 X108.65 Y138.589 E9.4847
G1 X108.651 Y101.407 E9.95097
G1 X109.15 Y98.766 E9.98468
G1 X110.983 Y96.045 E10.02582
G1 X113.707 Y94.21 E10.06701
G1 X116.357 Y93.71 E10.10083
G1 X213.651 Y93.711 E11.32093
G1 X216.291 Y94.209 E11.35462
G1 X219.015 Y96.044 E11.39581
G1 X220.85 Y98.768 E11.43699
G1 X221.35 Y101.413 E11.47075
G1 X221.349 Y138.6 E11.93709
G1 X220.85 Y141.234 E11.97071
G1 X219.017 Y143.954 E12.01184
G0 F9000 X218.728 Y143.666
G1 F1800 X216.143 Y145.41 E12.05095
G1 X213.612 Y145.89 E12.08325
G1 X116.38 Y145.889 E13.30258
G1 X113.857 Y145.411 E13.33478
G1 X111.271 Y143.666 E13.3739
G1 X109.53 Y141.082 E13.41297
G1 X109.05 Y138.551 E13.44528
G1 X109.051 Y101.444 E13.91061
G1 X109.528 Y98.921 E13.94281
G1 X111.271 Y96.333 E13.98194
G1 X113.862 Y94.588 E14.02112
G1 X116.394 Y94.11 E14.05343
G1 X213.614 Y94.111 E15.27261
G1 X216.136 Y94.587 E15.30479
G1 X218.727 Y96.332 E15.34396
G1 X220.472 Y98.923 E15.38314
G1 X220.95 Y101.45 E15.41539
G1 X220.949 Y138.562 E15.88079
G1 X220.472 Y141.078 E15.9129
G1 X218.728 Y143.666 E15.95204
G0 F9000 X218.439 Y143.378
G1 F1800 X215.986 Y145.033 E15.98915
G1 X213.575 Y145.49 E16.01992
G1 X116.418 Y145.489 E17.2383
G1 X114.013 Y145.033 E17.269
G1 X111.56 Y143.378 E17.30611
G1 X109.907 Y140.925 E17.3432
G1 X109.45 Y138.514 E17.37398
G1 X109.451 Y101.481 E17.83838
G1 X109.905 Y99.078 E17.86905
G1 X111.56 Y96.622 E17.90619
G1 X114.019 Y94.965 E17.94338
G1 X116.431 Y94.51 E17.97416
G1 X213.577 Y94.511 E19.1924
G1 X215.979 Y94.964 E19.22306
G1 X218.438 Y96.621 E19.26024
G1 X220.095 Y99.08 E19.29742
G1 X220.55 Y101.487 E19.32814
G1 X220.549 Y138.525 E19.79261
G1 X220.095 Y140.921 E19.8232
G1 X218.439 Y143.378 E19.86035
G0 F9000 X218.15 Y143.09
G1 F1800 X215.829 Y144.656 E19.89546
G1 X213.538 Y145.09 E19.92471
G1 X116.455 Y145.089 E21.14216
G1 X114.17 Y144.656 E21.17133
G1 X111.849 Y143.09 E21.20644
G1 X110.284 Y140.768 E21.24155
G1 X109.85 Y138.477 E21.27079
G1 X109.851 Y101.518 E21.73427
G1 X110.283 Y99.233 E21.76344
G1 X111.848 Y96.91 E21.79856
G1 X114.174 Y95.343 E21.83373
G1 X116.468 Y94.91 E21.86301
G1 X213.54 Y94.911 E23.08033
G1 X215.824 Y95.342 E23.10947
G1 X218.15 Y96.909 E23.14465
G1 X219.717 Y99.235 E23.17982
G1 X220.15 Y101.524 E23.20903
G1 X220.149 Y138.487 E23.67256
G1 X219.717 Y140.765 E23.70164
G1 X218.15 Y143.09 E23.7368
G0 F9000 X217.861 Y142.802
G1 F1800 X215.673 Y144.278 E23.76989
G1 X213.5 Y144.69 E23.79763
G1 X116.493 Y144.689 E25.01413
G1 X114.326 Y144.278 E25.04179
G1 X112.138 Y142.802 E25.07489
G1 X110.662 Y140.612 E25.10801
G1 X110.25 Y138.439 E25.13574
G1 X110.251 Y101.555 E25.59828
G1 X110.661 Y99.388 E25.62594
G1 X112.136 Y97.198 E25.65905
G1 X114.329 Y95.721 E25.69221
G1 X116.505 Y95.31 E25.71998
G1 X213.503 Y95.311 E26.93637
G1 X215.669 Y95.72 E26.96401
G1 X217.862 Y97.197 E26.99717
G1 X219.339 Y99.39 E27.03033
G1 X219.75 Y101.561 E27.05804
G1 X219.749 Y138.45 E27.52064
G1 X219.34 Y140.608 E27.54818
G1 X217.861 Y142.802 E27.58136
G0 F9000 X217.572 Y142.514
G1 F1800 X215.516 Y143.901 E27.61246
G1 X213.463 Y144.29 E27.63867
G1 X116.53 Y144.289 E28.85424
G1 X114.483 Y143.901 E28.88037
G1 X112.425 Y142.513 E28.9115
G1 X111.04 Y140.457 E28.94259
G1 X110.65 Y138.401 E28.96883
G1 X110.651 Y101.592 E29.43043
G1 X111.039 Y99.543 E29.45658
G1 X112.424 Y97.486 E29.48768
G1 X114.484 Y96.099 E29.51882
G1 X116.542 Y95.71 E29.54509
G1 X213.466 Y95.711 E30.76055
G1 X215.514 Y96.098 E30.78669
G1 X217.574 Y97.485 E30.81783
G1 X218.961 Y99.545 E30.84897
G1 X219.35 Y101.598 E30.87518
G1 X219.349 Y138.412 E31.33684
G1 X218.962 Y140.452 E31.36288
G1 X217.572 Y142.514 E31.39406
G0 F9000 X217.283 Y142.226
G1 F1800 X215.36 Y143.523 E31.42315
G1 X213.425 Y143.89 E31.44785
G1 X116.567 Y143.889 E32.66248
G1 X114.64 Y143.524 E32.68708
G1 X112.714 Y142.225 E32.71621
G1 X111.417 Y140.3 E32.74532
G1 X111.05 Y138.364 E32.77003
G1 X111.051 Y101.629 E33.2307
G1 X111.416 Y99.7 E33.25532
G1 X112.713 Y97.775 E33.28443
G1 X114.641 Y96.476 E33.31358
G1 X116.579 Y96.11 E33.33831
G1 X213.429 Y96.111 E34.55285
G1 X215.357 Y96.475 E34.57745
G1 X217.285 Y97.774 E34.60661
G1 X218.584 Y99.702 E34.63576
G1 X218.95 Y101.635 E34.66043
G1 X218.949 Y138.374 E35.12115
G1 X218.584 Y140.296 E35.14568
G1 X217.283 Y142.226 E35.17487
G0 F9000 X216.994 Y141.938
G1 F1800 X215.203 Y143.146 E35.20196
G1 X213.388 Y143.49 E35.22513
G1 X116.605 Y143.489 E36.43883
G1 X114.796 Y143.146 E36.46191
G1 X113.003 Y141.937 E36.48903
G1 X111.794 Y140.143 E36.51616
G1 X111.45 Y138.327 E36.53934
G1 X111.451 Y101.666 E36.99908
G1 X111.794 Y99.855 E37.0222
G1 X113.001 Y98.063 E37.04929
G1 X114.796 Y96.854 E37.07643
G1 X116.616 Y96.51 E37.09966
G1 X213.392 Y96.511 E38.31327
G1 X215.202 Y96.853 E38.33637
G1 X216.997 Y98.062 E38.36351
G1 X218.206 Y99.857 E38.39065
G1 X218.55 Y101.672 E38.41381
G1 X218.549 Y138.336 E38.87359
G1 X218.206 Y140.14 E38.89662
G1 X216.994 Y141.938 E38.92381
G0 F9000 X216.707 Y141.649
G1 F1800 X215.046 Y142.769 E38.94893
G1 X213.351 Y143.09 E38.97057
G1 X116.642 Y143.089 E40.18334
G1 X114.953 Y142.769 E40.20489
G1 X113.292 Y141.649 E40.23002
G1 X112.171 Y139.986 E40.25517
G1 X111.85 Y138.29 E40.27681
G1 X111.851 Y101.703 E40.73563
G1 X112.171 Y100.012 E40.75721
G1 X113.29 Y98.352 E40.78231
G1 X114.953 Y97.231 E40.80746
G1 X116.653 Y96.91 E40.82916
G1 X213.355 Y96.911 E42.04184
G1 X215.047 Y97.231 E42.06343
G1 X216.709 Y98.35 E42.08856
G1 X217.828 Y100.012 E42.11368
G1 X218.15 Y101.71 E42.13536
G1 X218.149 Y138.298 E42.59418
G1 X217.828 Y139.985 E42.61572
G1 X216.707 Y141.649 E42.64088
G0 F9000 X216.42 Y141.36
G1 F1800 X214.89 Y142.391 E42.66402
G1 X213.313 Y142.69 E42.68414
G1 X116.68 Y142.689 E43.89596
G1 X115.109 Y142.391 E43.91601
G1 X113.579 Y141.36 E43.93915
G1 X112.549 Y139.831 E43.96227
G1 X112.25 Y138.253 E43.98241
G1 X112.251 Y101.74 E44.44029
G1 X112.548 Y100.169 E44.46034
G1 X113.579 Y98.639 E44.48348
G1 X115.108 Y97.609 E44.5066
G1 X116.69 Y97.31 E44.52679
G1 X213.318 Y97.311 E45.73854
G1 X214.89 Y97.608 E45.7586
G1 X216.42 Y98.639 E45.78174
G1 X217.451 Y100.169 E45.80488
G1 X217.75 Y101.747 E45.82502
G1 X217.749 Y138.26 E46.2829
G1 X217.45 Y139.83 E46.30294
G1 X216.42 Y141.36 E46.32607
G0 F9000 X216.132 Y141.072
G1 F1800 X214.735 Y142.013 E46.3472
G1 X213.275 Y142.29 E46.36583
G1 X116.718 Y142.289 E47.57669
G1 X115.264 Y142.013 E47.59525
G1 X113.867 Y141.072 E47.61637
G1 X112.927 Y139.676 E47.63748
G1 X112.65 Y138.215 E47.65613
G1 X112.651 Y101.777 E48.11307
G1 X112.926 Y100.324 E48.13162
G1 X113.867 Y98.927 E48.15274
G1 X115.263 Y97.987 E48.17385
G1 X116.727 Y97.71 E48.19253
G1 X213.281 Y97.711 E49.40335
G1 X214.735 Y97.986 E49.42191
G1 X216.132 Y98.927 E49.44303
G1 X217.073 Y100.324 E49.46416
G1 X217.35 Y101.785 E49.4828
G1 X217.349 Y138.222 E49.93974
G1 X217.072 Y139.675 E49.95829
G1 X216.132 Y141.072 E49.9794
G0 F9000 X215.844 Y140.784
G1 F1800 X214.58 Y141.635 E49.99851
G1 X213.237 Y141.89 E50.01565
G1 X116.756 Y141.889 E51.22556
G1 X115.419 Y141.635 E51.24263
G1 X114.155 Y140.784 E51.26174
G1 X113.305 Y139.521 E51.28083
G1 X113.05 Y138.177 E51.29798
G1 X113.051 Y101.814 E51.75399
G1 X113.304 Y100.479 E51.77103
G1 X114.155 Y99.215 E51.79014
G1 X115.418 Y98.365 E51.80923
G1 X116.764 Y98.11 E51.82641
G1 X213.244 Y98.111 E53.0363
G1 X214.58 Y98.364 E53.05335
G1 X215.844 Y99.215 E53.07246
G1 X216.695 Y100.479 E53.09157
G1 X216.95 Y101.823 E53.10873
G1 X216.949 Y138.184 E53.56471
G1 X216.694 Y139.52 E53.58176
G1 X215.844 Y140.784 E53.60086
G0 F9000 X215.555 Y140.495
G1 F1800 X214.424 Y141.257 E53.61797
G1 X213.199 Y141.49 E53.6336
G1 X116.794 Y141.489 E54.84256
G1 X115.575 Y141.257 E54.85812
G1 X114.444 Y140.495 E54.87522
G1 X113.682 Y139.364 E54.89232
G1 X113.45 Y138.14 E54.90795
G1 X113.451 Y101.852 E55.36301
G1 X113.682 Y100.635 E55.37855
G1 X114.444 Y99.504 E55.39565
G1 X115.575 Y98.742 E55.41275
G1 X116.801 Y98.51 E55.4284
G1 X213.206 Y98.511 E56.63735
G1 X214.424 Y98.742 E56.6529
G1 X215.555 Y99.504 E56.67
G1 X216.317 Y100.635 E56.6871
G1 X216.55 Y101.861 E56.70275
G1 X216.549 Y138.146 E57.15778
G1 X216.317 Y139.364 E57.17333
G1 X215.555 Y140.495 E57.19043
G0 F9000 X215.267 Y140.207
G1 F1800 X214.269 Y140.879 E57.20552
G1 X213.161 Y141.09 E57.21966
G1 X116.832 Y141.089 E58.42766
G1 X115.73 Y140.879 E58.44173
G1 X114.732 Y140.207 E58.45682
G1 X114.06 Y139.209 E58.47191
G1 X113.85 Y138.102 E58.48604
G1 X113.851 Y101.89 E58.94015
G1 X114.06 Y100.79 E58.95419
G1 X114.732 Y99.792 E58.96928
G1 X115.73 Y99.12 E58.98437
G1 X116.838 Y98.91 E58.99851
G1 X213.168 Y98.911 E60.20652
G1 X214.269 Y99.12 E60.22058
G1 X215.267 Y99.792 E60.23566
G1 X215.939 Y100.79 E60.25075
G1 X216.15 Y101.899 E60.26491
G1 X216.149 Y138.108 E60.71898
G1 X215.939 Y139.209 E60.73304
G1 X215.267 Y140.207 E60.74813
G0 F9000 X214.691 Y139.631
G1 F1800 X213.959 Y140.123 E60.75919
G1 X213.085 Y140.29 E60.77035
G1 X116.908 Y140.289 E61.97644
G1 X116.04 Y140.123 E61.98752
G1 X115.308 Y139.631 E61.99858
G1 X114.816 Y138.899 E62.00964
G1 X114.65 Y138.026 E62.02079
G1 X114.651 Y101.966 E62.47299
G1 X114.816 Y101.1 E62.48405
G1 X115.308 Y100.368 E62.49511
G1 X116.04 Y99.876 E62.50617
G1 X116.914 Y99.71 E62.51733
G1 X213.092 Y99.711 E63.72343
G1 X213.959 Y99.876 E63.7345
G1 X214.691 Y100.368 E63.74556
G1 X215.183 Y101.1 E63.75662
G1 X215.35 Y101.975 E63.76779
G1 X215.349 Y138.032 E64.21996
G1 X215.183 Y138.899 E64.23103
G1 X214.691 Y139.631 E64.24209
G0 F9000 X214.979 Y139.919
G1 F1800 X214.114 Y140.501 E64.25517
G1 X213.123 Y140.69 E64.26782
G1 X116.87 Y140.689 E65.47487
G1 X115.885 Y140.501 E65.48744
G1 X115.02 Y139.919 E65.50051
G1 X114.438 Y139.054 E65.51359
G1 X114.25 Y138.064 E65.52623
G1 X114.251 Y101.928 E65.97938
G1 X114.438 Y100.945 E65.99193
G1 X115.02 Y100.08 E66.00501
G1 X115.885 Y99.498 E66.01808
G1 X116.876 Y99.31 E66.03073
G1 X213.13 Y99.311 E67.23779
G1 X214.114 Y99.498 E67.25035
G1 X214.979 Y100.08 E67.26343
G1 X215.561 Y100.945 E67.2765
G1 X215.75 Y101.937 E67.28916
G1 X215.749 Y138.07 E67.74229
G1 X215.561 Y139.054 E67.75485
G1 X214.979 Y139.919 E67.76792
;MESH:gcode_part.stl
G0 F9000 X213.746 Y139.607
;TYPE:WALL-OUTER
G1 F1800 X214.299 Y139.239 E67.77709
G1 X214.667 Y138.686 E67.78625
G1 X214.804 Y138.011 E67.79575
G1 X214.804 Y101.992 E68.29261
G1 X214.667 Y101.31 E68.30221
G1 X214.299 Y100.757 E68.31137
G1 X213.746 Y100.389 E68.32053
G1 X213.072 Y100.256 E68.33001
G1 X116.928 Y100.253 E69.65626
G1 X116.25 Y100.389 E69.6658
G1 X115.697 Y100.757 E69.67496
G1 X115.329 Y101.31 E69.68412
G1 X115.196 Y101.98 E69.69355
G1 X115.193 Y138.008 E70.19053
G1 X115.329 Y138.686 E70.20007
G1 X115.697 Y139.239 E70.20923
G1 X116.25 Y139.607 E70.2184
G1 X116.925 Y139.744 E70.2279
G1 X213.068 Y139.743 E71.55413
G1 X213.746 Y139.607 E71.56367
G0 F9000 X214.299 Y139.239
G0 X214.374 Y139.126
G1 F2700 E65.06367
G1 F600 Z2.2
G0 F9000 X203.971 Y130.129 Z2.2
M205 X30 Y30
G1 F600 Z0.2
G1 F2700 E71.56367
G1 F1800 X203.131 Y130.31 E71.57552
G1 X126.858 Y130.308 E72.62767
G1 X126.025 Y130.129 E72.63942
G1 X125.294 Y129.642 E72.65153
G1 X124.807 Y128.911 E72.66365
G1 X124.626 Y128.075 E72.67545
G1 X124.627 Y111.92 E72.8983
G1 X124.79 Y111.106 E72.90975
G1 X125.294 Y110.354 E72.92224
G1 X126.026 Y109.867 E72.93437
G1 X126.857 Y109.69 E72.94609
G1 X203.136 Y109.687 E73.99831
G1 X203.966 Y109.86 E74.01001
G1 X204.702 Y110.354 E74.02223
G1 X205.189 Y111.085 E74.03435
G1 X205.368 Y111.91 E74.046
G1 X205.37 Y128.071 E74.26893
G1 X205.189 Y128.911 E74.28078
G1 X204.702 Y129.642 E74.2929
G1 X203.971 Y130.129 E74.30501
G0 F9000 X203.189 Y130.297
G0 X204.128 Y130.508
;TYPE:WALL-INNER
G1 F1800 X203.162 Y130.712 E74.31678
G1 X126.833 Y130.712 E75.22611
G1 X125.867 Y130.508 E75.23787
G1 X125.002 Y129.932 E75.25025
G1 X124.429 Y129.069 E75.26259
G1 X124.224 Y128.106 E75.27432
G1 X124.224 Y111.895 E75.46745
G1 X124.423 Y110.933 E75.47915
G1 X125.002 Y110.063 E75.4916
G1 X125.868 Y109.487 E75.50399
G1 X126.826 Y109.288 E75.51565
G1 X203.161 Y109.284 E76.42506
G1 X204.111 Y109.48 E76.43661
G1 X204.993 Y110.062 E76.4492
G1 X205.567 Y110.927 E76.46157
G1 X205.772 Y111.887 E76.47326
G1 X205.772 Y128.102 E76.66644
G1 X205.568 Y129.069 E76.67821
G1 X204.992 Y129.934 E76.69059
G1 X204.128 Y130.508 E76.70295
G1 F2700 E70.20295
G1 F600 Z2.2
G0 F9000 X213.029 Y139.343 Z2.2
G1 F600 Z0.2
G1 F2700 E76.70295
G1 F1800 X213.59 Y139.23 E76.70977
G1 X214.011 Y138.951 E76.71579
G1 X214.29 Y138.53 E76.7218
G1 X214.404 Y137.971 E76.7286
G1 X214.404 Y102.032 E77.15675
G1 X214.291 Y101.466 E77.16363
G1 X214.011 Y101.045 E77.16965
G1 X213.59 Y100.766 E77.17567
G1 X213.033 Y100.656 E77.18243
G1 X116.968 Y100.653 E78.32689
G1 X116.406 Y100.765 E78.33372
G1 X115.985 Y101.045 E78.33974
G1 X115.706 Y101.465 E78.34575
G1 X115.596 Y102.019 E78.35248
G1 X115.593 Y137.969 E78.78076
G1 X115.706 Y138.53 E78.78758
G1 X115.985 Y138.951 E78.7936
G1 X116.406 Y139.23 E78.79961
G1 X116.965 Y139.344 E78.80641
G1 X213.029 Y139.343 E79.95085
G0 F9000 X212.99 Y138.943
G1 F1800 X213.434 Y138.854 E79.95625
G1 X213.722 Y138.662 E79.96037
G1 X213.914 Y138.374 E79.9645
G1 X214.004 Y137.931 E79.96988
G1 X214.004 Y102.072 E80.39708
G1 X213.914 Y101.622 E80.40255
